!!!OTL: Die dienende Schwester Es war sich ein Pfalzgrafen an dem Rhein.
!!!ARE: Europa, Mitteleuropa, Deutschland / France, Lothringen
!!!YOR: 4, S. 104
!!    1939 gedruckt in Kassel
!!!SCT: Q0075H
!!!YEM: Copyright 1995, estate of Helmut Schaffrath.
**kern
*ICvox
*Ivox
*M4/4
*k[b-]
*F:
{4c
=1
8f
8f
4a
4g
8f
8f
=2
4d
4d
2f}
=3
{4e
8e
8g
8f
8e
4d
=4
2c
4r}
{4c
=5
4f
4f
4g
4cc
=6
4cc
8b-
8g
4a}
{4f
=7
4g
8a
8g
4f}
==
!!!AGN: Ballade, Adelige als Dienstmagd, Tod; Kinder - Spiel, Tanz
!! Refrain in der zweiten und vierten Zeile. Eingeklammerte Note
!!    weggelassen.
!!!ONB: ESAC (Essen Associative Code) Database: BALLADE
!!!AMT: simple quadruple
!!!AIN: vox
!!!EED: Helmut Schaffrath
!!!EEV: 1.0
*-
